X:1
T: Meg Merrilees
C:
R:Reel
Q: 232
K:A
M:4/4
L:1/8
|:cd|ed cd ea gf|fe ee e2 cd|ef ec ea ec|cB BB B2 cd|
ed cd ea gf|fe ee e2 cd|ef ec BA Bc|A2 AA A2:|
|:e2|^de fe =de Be|ce Ae ce Ae|^de fe =dc dB|BA AA A2 e2|
^de fe =de Be|ce Ae ce Ae|BA Bc de fg|ag ag a2:|
e2 AB c2 Bc|d2 a2 g2 fg|a2 c'b a2 gf|e2 dc B2 cd||
